icons/clangd.svg

<svg width="16" height="16" version="1.1" xmlns="http://www.w3.org/2000/svg">
 <path d="m10 4h-2.5c-2.75 0-5.5 1.379-5.5 5.5 0 4.12 2.75 5.51 5.53 5.5h2.47v-3h-2.333c-0.0015737-0.026747-2.6671 0.28871-2.667-2.5221 1.12e-5 -2.806 2.3953-2.4499 2.5195-2.4779h2.4805z" fill="#4caf50"/>
 <path d="m10 1v6h-2.4805c-0.066512 0.030349-2.5195-0.34109-2.5195 2.4779-2.1e-6 2.817 2.6177 2.492 2.668 2.5221h5.332v-11h-2.7246z" fill="#2979ff"/>
</svg>

<svg xmlns="http://www.w3.org/2000/svg" viewBox="0 0 16 16"><path fill="#4caf50" d="M10 4H7.5C4.75 4 2 5.379 2 9.5c0 4.12 2.75 5.51 5.53 5.5H10v-3H7.667C7.665 11.973 5 12.289 5 9.478 5 6.672 7.395 7.028 7.52 7H10z"/><path fill="#2979ff" d="M10 1v6H7.52C7.452 7.03 5 6.659 5 9.478 5 12.295 7.618 11.97 7.668 12H13V1h-2.725z"/></svg>
